CSETWebApi/CSETWeb_Api/CSETWeb_ApiCore/Diagram/src/main/webapp/img/lib/mscae/Runbooks.svg

<svg xmlns="http://www.w3.org/2000/svg" height="49.9" width="46.206"><g fill="#7a7a7a" fill-rule="evenodd"><path d="M37.2 23.2H9c-1.2 0-2.3 1-2.3 2.5v10.7l3.9 1.1V27.1h24.9v10.3l3.9-1.1V25.7c0-1.5-1.1-2.5-2.2-2.5z"/><path d="M21.1 16.4H25v10.4h-3.9z"/></g><path d="M29.4 0H16.8c-1.3 0-2.4 1.1-2.4 2.4v11.7c0 1.3 1.1 2.4 2.4 2.4h12.5c1.3 0 2.4-1.1 2.4-2.4V2.4c.1-1.3-1-2.4-2.3-2.4zM14.9 33.4H2.4c-1.3 0-2.4 1.1-2.4 2.4v11.7c0 1.3 1.1 2.4 2.4 2.4h12.5c1.3 0 2.4-1.1 2.4-2.4V35.8c0-1.3-1.1-2.4-2.4-2.4zm28.9 0H31.3c-1.3 0-2.4 1.1-2.4 2.4v11.7c0 1.3 1.1 2.4 2.4 2.4h12.5c1.3 0 2.4-1.1 2.4-2.4V35.8c.1-1.3-1-2.4-2.4-2.4z" fill-rule="evenodd" fill="#59b4d9"/></svg>

<?xml version="1.0" encoding="UTF-8" standalone="no"?>
<svg
   xmlns:dc="http://purl.org/dc/elements/1.1/"
   xmlns:cc="http://creativecommons.org/ns#"
   xmlns:rdf="http://www.w3.org/1999/02/22-rdf-syntax-ns#"
   xmlns:svg="http://www.w3.org/2000/svg"
   xmlns="http://www.w3.org/2000/svg"
   xmlns:sodipodi="http://sodipodi.sourceforge.net/DTD/sodipodi-0.dtd"
   xmlns:inkscape="http://www.inkscape.org/namespaces/inkscape"
   version="1.1"
   id="Layer_1"
   x="0px"
   y="0px"
   height="49.900002"
   width="46.206318"
   viewBox="0 0 46.206318 49.900002"
   enable-background="new 0 0 50 50"
   xml:space="preserve"
   inkscape:version="0.91 r13725"
   sodipodi:docname="Azure Automation - Runbooks_COLOR.svg"><metadata
     id="metadata17"><rdf:RDF><cc:Work
         rdf:about=""><dc:format>image/svg+xml</dc:format><dc:type
           rdf:resource="http://purl.org/dc/dcmitype/StillImage" /><dc:title></dc:title></cc:Work></rdf:RDF></metadata><defs
     id="defs15" /><sodipodi:namedview
     pagecolor="#ffffff"
     bordercolor="#666666"
     borderopacity="1"
     objecttolerance="10"
     gridtolerance="10"
     guidetolerance="10"
     inkscape:pageopacity="0"
     inkscape:pageshadow="2"
     inkscape:window-width="1920"
     inkscape:window-height="1018"
     id="namedview13"
     showgrid="false"
     fit-margin-top="0"
     fit-margin-left="0"
     fit-margin-right="0"
     fit-margin-bottom="0"
     inkscape:zoom="16.059063"
     inkscape:cx="23.1"
     inkscape:cy="24.9"
     inkscape:window-x="-8"
     inkscape:window-y="-8"
     inkscape:window-maximized="1"
     inkscape:current-layer="Layer_1" /><path
     d="M 37.2,23.2 9,23.2 C 7.8,23.2 6.7,24.2 6.7,25.7 L 6.7,36.4 10.6,37.5 10.6,27.1 35.5,27.1 35.5,37.4 39.4,36.3 39.4,25.7 C 39.4,24.2 38.3,23.2 37.2,23.2 Z"
     id="path3"
     inkscape:connector-curvature="0"
     style="clip-rule:evenodd;fill:#7a7a7a;fill-rule:evenodd" /><rect
     x="21.1"
     y="16.4"
     width="3.9000001"
     height="10.4"
     id="rect5"
     style="clip-rule:evenodd;fill:#7a7a7a;fill-rule:evenodd" /><path
     d="M 29.4,0 16.8,0 C 15.5,0 14.4,1.1 14.4,2.4 L 14.4,14.1 C 14.4,15.4 15.5,16.5 16.8,16.5 L 29.3,16.5 C 30.6,16.5 31.7,15.4 31.7,14.1 L 31.7,2.4 C 31.8,1.1 30.7,0 29.4,0 Z"
     id="path7"
     inkscape:connector-curvature="0"
     style="clip-rule:evenodd;fill:#59b4d9;fill-rule:evenodd" /><path
     d="M 14.9,33.4 2.4,33.4 C 1.1,33.4 0,34.5 0,35.8 L 0,47.5 C 0,48.8 1.1,49.9 2.4,49.9 L 14.9,49.9 C 16.2,49.9 17.3,48.8 17.3,47.5 L 17.3,35.8 C 17.3,34.5 16.2,33.4 14.9,33.4 Z"
     id="path9"
     inkscape:connector-curvature="0"
     style="clip-rule:evenodd;fill:#59b4d9;fill-rule:evenodd" /><path
     d="M 43.8,33.4 31.3,33.4 C 30,33.4 28.9,34.5 28.9,35.8 L 28.9,47.5 C 28.9,48.8 30,49.9 31.3,49.9 L 43.8,49.9 C 45.1,49.9 46.2,48.8 46.2,47.5 L 46.2,35.8 C 46.3,34.5 45.2,33.4 43.8,33.4 Z"
     id="path11"
     inkscape:connector-curvature="0"
     style="clip-rule:evenodd;fill:#59b4d9;fill-rule:evenodd" /></svg>
